public/assets/images/brand/02.svg

<svg width="70" height="30" viewBox="0 0 70 30" fill="none" xmlns="http://www.w3.org/2000/svg">
<g clip-path="url(#clip0_21_17)">
<path fill-rule="evenodd" clip-rule="evenodd" d="M70 15.4837C70 10.5277 67.5888 6.61719 62.9805 6.61719C58.3527 6.61719 55.5527 10.5277 55.5527 15.445C55.5527 21.2721 58.8583 24.2147 63.6027 24.2147C65.9166 24.2147 67.6666 23.692 68.9888 22.9563V19.0845C67.6666 19.7427 66.15 20.1492 64.225 20.1492C62.3388 20.1492 60.6666 19.491 60.4527 17.2066H69.9611C69.9611 16.955 70 15.9483 70 15.4837ZM60.3944 13.6446C60.3944 11.457 61.7361 10.5471 62.9611 10.5471C64.1472 10.5471 65.4111 11.457 65.4111 13.6446H60.3944Z" fill="#050D20"/>
<path fill-rule="evenodd" clip-rule="evenodd" d="M48.0467 6.61719C46.1412 6.61719 44.9162 7.50771 44.2356 8.1272L43.9829 6.92693H39.7051V29.4997L44.5662 28.4737L44.5856 22.995C45.2856 23.4984 46.3162 24.2147 48.0273 24.2147C51.5079 24.2147 54.6773 21.4269 54.6773 15.2901C54.6579 9.67593 51.4495 6.61719 48.0467 6.61719ZM46.8801 19.9556C45.7329 19.9556 45.0523 19.5491 44.5856 19.0458L44.5662 11.8635C45.0717 11.3021 45.7717 10.9149 46.8801 10.9149C48.6495 10.9149 49.8745 12.8896 49.8745 15.4256C49.8745 18.0197 48.669 19.9556 46.8801 19.9556Z" fill="#050D20"/>
<path fill-rule="evenodd" clip-rule="evenodd" d="M33.0167 5.4753L37.8973 4.42991V0.5L33.0167 1.52603V5.4753Z" fill="#050D20"/>
<path d="M37.8972 6.94531H33.0166V23.8846H37.8972V6.94531Z" fill="#050D20"/>
<path fill-rule="evenodd" clip-rule="evenodd" d="M27.7865 8.37878L27.4754 6.9462H23.2754V23.8855H28.1365V12.4055C29.2837 10.9148 31.2282 11.1859 31.8309 11.3988V6.9462C31.2087 6.71389 28.9337 6.28799 27.7865 8.37878Z" fill="#050D20"/>
<path fill-rule="evenodd" clip-rule="evenodd" d="M18.0639 2.74609L13.3195 3.75277L13.3 19.2594C13.3 22.1246 15.4584 24.2347 18.3362 24.2347C19.9306 24.2347 21.0973 23.9444 21.7389 23.5959V19.666C21.1167 19.9177 18.0445 20.8082 18.0445 17.943V11.0705H21.7389V6.94703H18.0445L18.0639 2.74609Z" fill="#050D20"/>
<path fill-rule="evenodd" clip-rule="evenodd" d="M4.91944 11.8635C4.91944 11.1085 5.54167 10.8181 6.57222 10.8181C8.05 10.8181 9.91667 11.2634 11.3944 12.0571V7.50771C9.78056 6.86886 8.18611 6.61719 6.57222 6.61719C2.625 6.61719 0 8.66926 0 12.0958C0 17.439 7.38889 16.5678 7.38889 18.8715C7.38889 19.762 6.61111 20.0524 5.52222 20.0524C3.90833 20.0524 1.84722 19.3942 0.213889 18.5037V23.1112C2.02222 23.8855 3.85 24.2147 5.52222 24.2147C9.56667 24.2147 12.3472 22.2207 12.3472 18.7554C12.3278 13.0057 4.91944 14.0317 4.91944 11.8635Z" fill="#050D20"/>
</g>
<defs>
<clipPath id="clip0_21_17">
<rect width="70" height="29" fill="white" transform="translate(0 0.5)"/>
</clipPath>
</defs>
</svg>

<svg xmlns="http://www.w3.org/2000/svg" width="70" height="30" fill="none" viewBox="0 0 70 30"><g fill="#050d20" clip-path="url(#a)"><path fill-rule="evenodd" d="M70 15.484c0-4.956-2.411-8.867-7.02-8.867-4.627 0-7.427 3.91-7.427 8.828 0 5.827 3.305 8.77 8.05 8.77 2.314 0 4.064-.523 5.386-1.259v-3.872c-1.322.659-2.839 1.065-4.764 1.065-1.886 0-3.558-.658-3.772-2.942h9.508c0-.252.039-1.259.039-1.723m-9.606-1.84c0-2.187 1.342-3.097 2.567-3.097 1.186 0 2.45.91 2.45 3.098zM48.047 6.617c-1.906 0-3.13.89-3.811 1.51l-.253-1.2h-4.278V29.5l4.861-1.026.02-5.479c.7.503 1.73 1.22 3.441 1.22 3.48 0 6.65-2.788 6.65-8.925-.02-5.614-3.227-8.673-6.63-8.673M46.88 19.956c-1.147 0-1.828-.407-2.294-.91l-.02-7.182c.506-.562 1.206-.95 2.314-.95 1.77 0 2.994 1.976 2.994 4.512 0 2.594-1.205 4.53-2.994 4.53M33.017 5.475l4.88-1.045V.5l-4.88 1.026z" clip-rule="evenodd"/><path d="M37.897 6.945h-4.88v16.94h4.88z"/><path fill-rule="evenodd" d="m27.787 8.379-.312-1.433h-4.2v16.94h4.862v-11.48c1.147-1.491 3.091-1.22 3.694-1.007V6.946c-.622-.232-2.897-.658-4.044 1.433m-9.723-5.633L13.32 3.753l-.02 15.506c0 2.866 2.158 4.976 5.036 4.976 1.595 0 2.761-.29 3.403-.64v-3.929c-.622.252-3.695 1.142-3.695-1.723V11.07h3.695V6.947h-3.695zM4.92 11.864c0-.756.622-1.046 1.652-1.046 1.478 0 3.345.445 4.822 1.24v-4.55c-1.613-.64-3.208-.89-4.822-.89C2.625 6.617 0 8.668 0 12.095c0 5.343 7.389 4.472 7.389 6.776 0 .89-.778 1.18-1.867 1.18-1.614 0-3.675-.658-5.308-1.548v4.607a13.5 13.5 0 0 0 5.308 1.104c4.045 0 6.825-1.994 6.825-5.46-.02-5.75-7.428-4.723-7.428-6.891" clip-rule="evenodd"/></g><defs><clipPath id="a"><path fill="#fff" d="M0 .5h70v29H0z"/></clipPath></defs></svg>
